src/images/icon/skill-2.svg

<svg width="90" height="90" viewBox="0 0 90 90" fill="none" xmlns="http://www.w3.org/2000/svg">
<path d="M49.6552 80.6897V85.3448C49.6552 87.9158 47.571 90 45 90C42.429 90 40.3448 87.9158 40.3448 85.3448V80.6897H49.6552Z" fill="#E5E5E5"/>
<path d="M49.6552 77.5862H40.3448C38.6308 77.5862 37.2414 78.9757 37.2414 80.6897C37.2414 82.4037 38.6308 83.7931 40.3448 83.7931H49.6552C51.3692 83.7931 52.7586 82.4037 52.7586 80.6897C52.7586 78.9757 51.3692 77.5862 49.6552 77.5862Z" fill="#E0E0E0"/>
<path d="M79.1379 48.1034H72.931C72.074 48.1034 71.3793 47.4087 71.3793 46.5517C71.3793 45.6947 72.074 45 72.931 45H79.1379C79.9949 45 80.6897 45.6947 80.6897 46.5517C80.6897 47.4087 79.9949 48.1034 79.1379 48.1034Z" fill="#F8E8AB"/>
<path d="M17.069 48.1034H10.8621C10.0051 48.1034 9.31035 47.4087 9.31035 46.5517C9.31035 45.6947 10.0051 45 10.8621 45H17.069C17.926 45 18.6207 45.6947 18.6207 46.5517C18.6207 47.4087 17.926 48.1034 17.069 48.1034Z" fill="#F8E8AB"/>
<path d="M11.714 55.7317C10.925 55.7329 10.2608 55.1418 10.1702 54.358C10.0797 53.5743 10.5917 52.8474 11.3602 52.6686L17.4119 51.2472C18.2466 51.0514 19.082 51.5693 19.2779 52.404C19.4737 53.2388 18.9558 54.0742 18.121 54.27L12.0693 55.6914C11.9527 55.7177 11.8335 55.7312 11.714 55.7317Z" fill="#F8E8AB"/>
<path d="M14.2355 63.1552C13.5095 63.1619 12.876 62.6643 12.7104 61.9574C12.5449 61.2505 12.8916 60.5233 13.545 60.2069L19.139 57.4324C19.9027 57.0744 20.8126 57.392 21.1876 58.1475C21.5626 58.903 21.2654 59.8197 20.5185 60.2116L14.9229 63C14.7089 63.1043 14.4736 63.1575 14.2355 63.1552Z" fill="#F8E8AB"/>
<path d="M18.2933 69.8276C17.6374 69.8286 17.0517 69.4172 16.8302 68.7998C16.6087 68.1824 16.7994 67.4925 17.3064 67.0764L22.1617 63.09C22.5905 62.738 23.1746 62.6415 23.6938 62.8368C24.2131 63.0321 24.5887 63.4897 24.6792 64.0371C24.7696 64.5844 24.5612 65.1385 24.1324 65.4905L19.2771 69.4753C18.9997 69.703 18.6521 69.8274 18.2933 69.8276Z" fill="#F8E8AB"/>
<path d="M17.7688 41.8966C17.6492 41.8961 17.5301 41.8826 17.4135 41.8562L11.3617 40.4348C10.527 40.239 10.0091 39.4036 10.2049 38.5689C10.4007 37.7342 11.2362 37.2162 12.0709 37.4121L18.1226 38.8334C18.8911 39.0122 19.4031 39.7391 19.3125 40.5229C19.222 41.3066 18.5578 41.8977 17.7688 41.8966Z" fill="#F8E8AB"/>
<path d="M78.1572 55.7317C78.0377 55.7312 77.9185 55.7177 77.8019 55.6914L71.7502 54.27C70.9155 54.0742 70.3975 53.2388 70.5934 52.404C70.7892 51.5693 71.6246 51.0514 72.4593 51.2472L78.511 52.6686C79.2795 52.8474 79.7915 53.5743 79.701 54.358C79.6105 55.1418 78.9462 55.7329 78.1572 55.7317Z" fill="#F8E8AB"/>
<path d="M75.6357 63.1552C75.3976 63.1575 75.1623 63.1044 74.9483 63L69.3528 60.2255C68.6058 59.8337 68.3086 58.917 68.6837 58.1615C69.0587 57.4059 69.9685 57.0883 70.7322 57.4464L76.3262 60.2209C76.9797 60.5373 77.3264 61.2645 77.1608 61.9713C76.9952 62.6782 76.3617 63.1758 75.6357 63.1691V63.1552Z" fill="#F8E8AB"/>
<path d="M71.5795 69.8276C71.2207 69.8274 70.873 69.703 70.5957 69.4753L65.7388 65.4905C65.0759 64.9463 64.9797 63.9678 65.5239 63.3049C66.0681 62.642 67.0466 62.5458 67.7095 63.09L72.5664 67.0764C73.0734 67.4925 73.264 68.1824 73.0426 68.7998C72.8211 69.4172 72.2354 69.8286 71.5795 69.8276Z" fill="#F8E8AB"/>
<path d="M72.1024 41.8966C71.3134 41.8977 70.6492 41.3066 70.5587 40.5229C70.4682 39.7391 70.9802 39.0122 71.7486 38.8334L77.8003 37.4121C78.6351 37.2162 79.4705 37.7342 79.6663 38.5689C79.8621 39.4036 79.3442 40.239 78.5095 40.4348L72.4578 41.8562C72.3411 41.8826 72.222 41.8961 72.1024 41.8966Z" fill="#F8E8AB"/>
<path d="M68.2759 25.9138L74.731 23.6172L79.0324 22.081L88.9634 18.5276C89.5771 18.3048 89.9858 17.7218 89.9858 17.069C89.9858 16.4161 89.5771 15.8331 88.9634 15.6103L45.5431 0.0931031C45.1917 -0.031014 44.8083 -0.031014 44.4569 0.0931031L1.03655 15.6103C0.422869 15.8331 0.0142365 16.4161 0.0142365 17.069C0.0142365 17.7218 0.422869 18.3048 1.03655 18.5276L21.7241 25.9138H68.2759Z" fill="#343434"/>
<path d="M68.2759 20.1724V34.1379C68.2759 31.5621 57.8483 29.4828 45 29.4828C41.85 29.4828 38.8397 29.6069 36.0931 29.8397C27.6672 30.5379 21.7241 32.1983 21.7241 34.1379V20.1724C21.7241 17.5966 32.1517 15.5172 45 15.5172C57.8483 15.5172 68.2759 17.5966 68.2759 20.1724Z" fill="#464F5E"/>
<path d="M77.5862 23.2759C76.7292 23.2759 76.0345 22.5811 76.0345 21.7241V11.5448C76.0345 10.6878 76.7292 9.9931 77.5862 9.9931C78.4432 9.9931 79.1379 10.6878 79.1379 11.5448V21.7241C79.1379 22.5811 78.4432 23.2759 77.5862 23.2759Z" fill="#FEC830"/>
<path d="M74.4828 24.8276V29.4828C74.4828 30.3397 75.1775 31.0345 76.0345 31.0345H79.1379C79.9949 31.0345 80.6897 30.3397 80.6897 29.4828V24.8276C80.6897 23.1136 79.3002 21.7241 77.5862 21.7241C75.8722 21.7241 74.4828 23.1136 74.4828 24.8276Z" fill="#F1D24B"/>
<path d="M68.2759 34.1379C68.2759 35.2862 66.1965 36.3414 62.7517 37.1483C60.5101 33.9588 57.4489 31.4338 53.8914 29.8397C62.3328 30.5379 68.2759 32.1983 68.2759 34.1379Z" fill="#343434"/>
<path d="M66.7241 49.6552C66.7263 56.5792 63.4228 63.0883 57.8328 67.1741C55.2451 69.1131 53.5054 71.9757 52.9759 75.1655C52.675 76.5916 51.4074 77.6057 49.95 77.5862H40.05C38.5926 77.6057 37.325 76.5916 37.0241 75.1655C36.4947 71.9757 34.7549 69.1131 32.1672 67.1741C25.9317 62.6051 22.5938 55.0667 23.4022 47.3788C24.2107 39.6909 29.0435 33.0117 36.0931 29.8397C38.8397 29.6069 41.85 29.4828 45 29.4828C48.15 29.4828 51.1448 29.6069 53.8914 29.8397C57.4489 31.4338 60.5101 33.9588 62.7517 37.1483C62.9069 37.3655 63.0621 37.5983 63.2017 37.831C63.3879 38.1259 63.5742 38.4207 63.7448 38.7155C65.7068 42.0265 66.7362 45.8066 66.7241 49.6552Z" fill="#FEC830"/>
<path d="M29.4828 51.2069C28.6258 51.2069 27.931 50.5122 27.931 49.6552C27.9137 44.2764 30.451 39.2088 34.7679 36C35.2114 35.6674 35.7987 35.5966 36.3085 35.8144C36.8183 36.0322 37.1732 36.5054 37.2396 37.0558C37.3059 37.6062 37.0735 38.1501 36.63 38.4828C33.0967 41.1072 31.0199 45.2538 31.0345 49.6552C31.0345 50.5122 30.3397 51.2069 29.4828 51.2069Z" fill="#F8E8AB"/>
<path d="M36.0931 29.8397C32.5427 31.4385 29.4877 33.9629 27.2483 37.1483C23.8034 36.3414 21.7241 35.2862 21.7241 34.1379C21.7241 32.1983 27.6672 30.5379 36.0931 29.8397Z" fill="#343434"/>
</svg>

<svg width="90" height="90" fill="none" xmlns="http://www.w3.org/2000/svg"><path d="M49.655 80.69v4.655a4.655 4.655 0 11-9.31 0V80.69h9.31z" fill="#E5E5E5"/><path d="M49.655 77.586h-9.31a3.103 3.103 0 000 6.207h9.31a3.103 3.103 0 100-6.207z" fill="#E0E0E0"/><path d="M79.138 48.103H72.93a1.552 1.552 0 110-3.103h6.207a1.552 1.552 0 110 3.103zM17.069 48.103h-6.207a1.552 1.552 0 110-3.103h6.207a1.552 1.552 0 110 3.103zM11.714 55.732a1.552 1.552 0 01-.354-3.063l6.052-1.422a1.553 1.553 0 01.709 3.023l-6.052 1.421c-.116.027-.236.04-.355.04zM14.236 63.155a1.552 1.552 0 01-.691-2.948l5.594-2.775a1.552 1.552 0 011.38 2.78L14.922 63c-.214.104-.45.157-.688.155zM18.293 69.828a1.552 1.552 0 01-.987-2.752l4.856-3.986a1.553 1.553 0 011.97 2.4l-4.855 3.985a1.552 1.552 0 01-.984.353zM17.769 41.897a1.64 1.64 0 01-.355-.04l-6.052-1.422a1.552 1.552 0 11.709-3.023l6.052 1.421a1.552 1.552 0 01-.354 3.064zM78.157 55.732c-.12 0-.239-.014-.355-.04L71.75 54.27a1.552 1.552 0 11.71-3.023l6.051 1.422a1.552 1.552 0 01-.354 3.063zM75.636 63.155a1.534 1.534 0 01-.688-.155l-5.595-2.775a1.552 1.552 0 011.38-2.779l5.593 2.775a1.552 1.552 0 01-.69 2.948v-.014zM71.58 69.828c-.36 0-.707-.125-.984-.353l-4.857-3.984a1.553 1.553 0 111.97-2.401l4.857 3.986a1.552 1.552 0 01-.987 2.752zM72.102 41.897a1.552 1.552 0 01-.353-3.064l6.051-1.42a1.552 1.552 0 11.71 3.022l-6.052 1.421c-.117.027-.236.04-.356.04z" fill="#F8E8AB"/><path d="M68.276 25.914l6.455-2.297 4.301-1.536 9.931-3.553a1.552 1.552 0 000-2.918L45.543.093a1.63 1.63 0 00-1.086 0L1.037 15.61a1.552 1.552 0 000 2.918l20.687 7.386h46.552z" fill="#343434"/><path d="M68.276 20.172v13.966c0-2.576-10.428-4.655-23.276-4.655-3.15 0-6.16.124-8.907.357-8.426.698-14.369 2.358-14.369 4.298V20.172c0-2.575 10.428-4.655 23.276-4.655 12.848 0 23.276 2.08 23.276 4.655z" fill="#464F5E"/><path d="M77.586 23.276a1.552 1.552 0 01-1.552-1.552v-10.18a1.552 1.552 0 113.104 0v10.18c0 .857-.695 1.552-1.552 1.552z" fill="#FEC830"/><path d="M74.483 24.828v4.655c0 .857.694 1.552 1.551 1.552h3.104c.857 0 1.552-.695 1.552-1.552v-4.655a3.104 3.104 0 00-6.207 0z" fill="#F1D24B"/><path d="M68.276 34.138c0 1.148-2.08 2.203-5.524 3.01a21.65 21.65 0 00-8.86-7.308c8.44.698 14.384 2.358 14.384 4.298z" fill="#343434"/><path d="M66.724 49.655a21.691 21.691 0 01-8.891 17.52 12.555 12.555 0 00-4.857 7.99 3.05 3.05 0 01-3.026 2.421h-9.9a3.05 3.05 0 01-3.026-2.42 12.555 12.555 0 00-4.857-7.992 21.724 21.724 0 013.926-37.334c2.747-.233 5.757-.357 8.907-.357 3.15 0 6.145.124 8.891.357a21.65 21.65 0 018.86 7.308c.156.217.311.45.45.683.187.295.373.59.544.884a21.328 21.328 0 012.98 10.94z" fill="#FEC830"/><path d="M29.483 51.207a1.552 1.552 0 01-1.552-1.552A16.947 16.947 0 0134.768 36a1.552 1.552 0 011.862 2.483 13.86 13.86 0 00-5.596 11.172c0 .857-.694 1.552-1.551 1.552z" fill="#F8E8AB"/><path d="M36.093 29.84a21.707 21.707 0 00-8.845 7.308c-3.445-.807-5.524-1.862-5.524-3.01 0-1.94 5.943-3.6 14.37-4.298z" fill="#343434"/></svg>
